src/img/main/logo.svg

<svg width="110" height="41" viewBox="0 0 110 41" fill="none" xmlns="http://www.w3.org/2000/svg">
<g clip-path="url(#clip0)">
<path d="M0 17H4.9V18H1V20.3H4.6V21.3H1V23.7H5.1V24.7H0V17Z" fill="#D77C69"/>
<path d="M17.4 17H20.1C20.6 17 21 17.1 21.3 17.2C21.6 17.3 21.9 17.5 22.1 17.7C22.3 17.9 22.4 18.1 22.5 18.4C22.6 18.7 22.6 18.9 22.6 19.1C22.6 19.3 22.6 19.6 22.5 19.8C22.4 20.1 22.3 20.3 22.1 20.5C21.9 20.7 21.7 20.9 21.3 21C21 21.1 20.6 21.2 20.1 21.2H18.4V24.6H17.4V17ZM18.4 20.3H19.8C20 20.3 20.2 20.3 20.4 20.3C20.6 20.3 20.8 20.2 20.9 20.1C21.1 20 21.2 19.9 21.3 19.7C21.4 19.5 21.4 19.3 21.4 19.1C21.4 18.8 21.4 18.6 21.3 18.5C21.2 18.3 21.1 18.2 20.9 18.1C20.7 18 20.6 18 20.4 17.9C20.2 17.9 20 17.9 19.8 17.9H18.4V20.3Z" fill="#D77C69"/>
<path d="M34.6 17H35.6V24.6H34.6V17Z" fill="#D77C69"/>
<path d="M48.4 17H49.4V23.7H52.9V24.7H48.4V17Z" fill="#D77C69"/>
<path d="M64.7 17H66.2L68.6 22.8L71 17H72.5V24.6H71.5V18.3L69 24.6H68.3L65.7 18.3V24.6H64.7V17Z" fill="#D77C69"/>
<path d="M85.3 17H90.2V18H86.3V20.3H90V21.3H86.4V23.7H90.5V24.7H85.4V17H85.3Z" fill="#D77C69"/>
<path d="M102.5 17H105.2C105.7 17 106.2 17.1 106.6 17.2C107 17.3 107.4 17.5 107.7 17.7C108 17.9 108.2 18.1 108.4 18.4C108.6 18.7 108.8 18.9 108.9 19.2C109 19.5 109.1 19.8 109.1 20C109.2 20.3 109.2 20.5 109.2 20.8C109.2 21.3 109.1 21.8 108.9 22.2C108.7 22.6 108.5 23.1 108.1 23.4C107.7 23.8 107.3 24 106.8 24.3C106.3 24.6 105.7 24.6 105 24.6H102.5V17ZM103.6 23.6H104.9C105.3 23.6 105.8 23.5 106.1 23.4C106.5 23.3 106.8 23.1 107.1 22.9C107.4 22.7 107.6 22.4 107.8 22C108 21.6 108.1 21.2 108.1 20.8C108.1 20.6 108.1 20.3 108 19.9C107.9 19.5 107.8 19.3 107.6 19C107.4 18.7 107.1 18.5 106.7 18.2C106.3 17.9 105.8 17.9 105.2 17.9H103.6V23.6Z" fill="#D77C69"/>
<path d="M34.2 11.2002H33.5C33.5 11.4002 33.4 11.5002 33.4 11.6002H34.2V11.2002Z" fill="#D77C69"/>
<path d="M19.8 11.3C19.8 8.8 19.8 6.6 19.9 4.8C20 2.9 20 1.7 20.1 1.1C20.5 1 21.1 1 21.9 0.9C22.7 0.8 23.6 0.8 24.4 0.8C26.9 0.8 29 0.9 30.7 1.1C32.4 1.3 33.6 1.6 34.3 1.9C37 3.2 39.8 5.8 42.9 9.6L43.5 9.3L39.5 0H8.39999V0.6C9.39999 0.8 10.2 0.9 10.9 1.1C11.5 1.3 12.1 1.7 12.7 2.3C12.9 2.5 13.1 2.9 13.2 3.4C13.3 3.9 13.4 4.5 13.5 5.1C13.6 5.7 13.6 6.4 13.6 7.1C13.6 7.8 13.6 8.5 13.6 9.2V11.7H19.8C19.8 11.5 19.8 11.4 19.8 11.3Z" fill="#D77C69"/>
<path d="M33.5 28.9002H34.2V28.7002H33.5C33.5 28.8002 33.5 28.9002 33.5 28.9002Z" fill="#D77C69"/>
<path d="M13.5 29.7002C13.5 30.6002 13.5 31.3002 13.5 31.8002C13.5 32.4002 13.5 33.0002 13.4 33.6002C13.4 34.2002 13.3 34.8002 13.2 35.4002C13.1 36.0002 13 36.5002 12.9 36.9002C12.8 37.3002 12.6 37.7002 12.4 37.9002C11.9 38.5002 11.2 39.0002 10.4 39.3002C9.59999 39.6002 8.69999 39.9002 7.79999 40.0002V40.6002H42.3L45.1 29.8002L44.5 29.6002C43.6 31.2002 42.6 32.6002 41.8 33.7002C40.9 34.8002 40 35.8002 39.1 36.6002C38.2 37.4002 37.2 38.0002 36.2 38.4002C35.2 38.8002 34.1 39.1002 32.9 39.3002C31.8 39.5002 30.8 39.5002 29.8 39.6002C28.8 39.6002 28 39.7002 27.3 39.7002C25.8 39.7002 24.4 39.6002 23.1 39.4002C21.8 39.2002 21 38.8002 20.7 38.3002C20.4 37.8002 20.1 37.0002 20.1 35.9002C20.1 34.8002 19.9 33.7002 19.9 32.5002C19.9 32.1002 19.9 31.7002 19.9 31.1002C19.9 30.6002 19.9 30.0002 19.9 29.4002C19.9 29.2002 19.9 29.0002 19.9 28.7002H13.7C13.6 29.1002 13.6 29.4002 13.5 29.7002Z" fill="#D77C69"/>
<path d="M73.8 30.7001L72.9 28.7001H66.1C66.5 29.6001 66.9 30.4001 67.2 31.3001C68.4 34.0001 69.6 36.8001 70.8 39.6001H71.1C71.2 39.4001 71.4 38.9001 71.7 38.2001C72 37.5001 72.3 36.7001 72.7 35.9001C73 35.1001 73.4 34.2001 73.7 33.4001C74 32.6001 74.3 32.0001 74.5 31.6001C75 30.6001 75.4 29.6001 75.8 28.6001H74.6C74.4 29.4001 74.1 30.0001 73.8 30.7001Z" fill="#D77C69"/>
<path d="M53.4 33.4002C53.2 34.7002 52.8 35.9002 52.3 36.8002C51.8 37.7002 51.2 38.4002 50.3 38.9002C49.5 39.4002 48.4 39.8002 47.1 40.1002V40.7002H61.8V40.1002C60.2 39.9002 58.9 39.5002 58 39.0002C57.1 38.5002 56.4 37.8002 55.9 36.9002C55.4 36.0002 55.2 34.9002 55.1 33.6002C55 32.3002 54.9 30.8002 54.9 29.0002C54.9 28.9002 54.9 28.8002 54.9 28.7002H53.7C53.7 30.6002 53.6 32.1002 53.4 33.4002Z" fill="#D77C69"/>
<path d="M87.4 32.8002C87.4 33.6002 87.3 34.3002 87.2 35.0002C87.1 35.7002 86.9 36.3002 86.7 36.8002C86.3 37.6002 85.6 38.3002 84.5 38.9002C83.4 39.5002 82.1 39.8002 80.4 39.9002V40.5002H99.8V39.9002C98.9 39.9002 98.1 39.7002 97.4 39.5002C96.7 39.3002 96.2 39.0002 95.7 38.7002C95.2 38.4002 94.9 38.1002 94.7 37.8002C94.5 37.5002 94.3 37.3002 94.3 37.3002C94.1 36.9002 93.9 36.3002 93.8 35.6002C93.7 34.9002 93.7 34.1002 93.7 33.4002C93.7 31.8002 93.7 30.2002 93.7 28.7002H87.6C87.5 30.1002 87.5 31.4002 87.4 32.8002Z" fill="#D77C69"/>
<path d="M84.1 10.4C85.1 8.1 86.3 5.5 87.5 2.7V11.5H93.6C93.6 11.2 93.6 10.9 93.6 10.6C93.6 9.3 93.7 7.9 93.8 6.6C93.9 5.2 94 4.2 94.3 3.6C94.6 2.8 95.2 2.1 96 1.5C96.8 0.9 98 0.6 99.5 0.5V0H87.5C87.4 0.3 86.9 1.4 86.1 3.3C85.3 5.2 84.3 7.6 83 10.4C82.8 10.8 82.7 11.2 82.5 11.6H83.7C83.8 11.2 84 10.8 84.1 10.4Z" fill="#D77C69"/>
<path d="M55 10.2C55 8.3 55 6.1 55 3.6C55.2 4 55.5 4.8 56 6C56.5 7.2 57.2 8.6 57.9 10.3C58.1 10.7 58.3 11.1 58.5 11.5H65.4L60.4 0H48.4V0.6C48.9 0.7 49.4 0.8 50 1C50.6 1.2 51.2 1.4 51.8 1.8C52.4 2.2 52.9 2.7 53.3 3.4C53.7 4.1 53.9 4.9 54 6C54 7 54 7.9 54 8.6C54 9.4 54 10.1 54 10.8C54 11.1 54 11.3 54 11.6H55C55 11.2 55 10.7 55 10.2Z" fill="#D77C69"/>
</g>
<defs>
<clipPath id="clip0">
<rect width="109.2" height="40.6" fill="white"/>
</clipPath>
</defs>
</svg>

<svg width="110" height="41" fill="none" xmlns="http://www.w3.org/2000/svg"><g clip-path="url(#clip0)" fill="#D77C69"><path d="M0 17h4.9v1H1v2.3h3.6v1H1v2.4h4.1v1H0V17zM17.4 17h2.7c.5 0 .9.1 1.2.2.3.1.6.3.8.5.2.2.3.4.4.7.1.3.1.5.1.7 0 .2 0 .5-.1.7-.1.3-.2.5-.4.7-.2.2-.4.4-.8.5-.3.1-.7.2-1.2.2h-1.7v3.4h-1V17zm1 3.3h2c.2 0 .4-.1.5-.2.2-.1.3-.2.4-.4.1-.2.1-.4.1-.6 0-.3 0-.5-.1-.6-.1-.2-.2-.3-.4-.4-.2-.1-.3-.1-.5-.2h-2v2.4zM34.6 17h1v7.6h-1V17zM48.4 17h1v6.7h3.5v1h-4.5V17zM64.7 17h1.5l2.4 5.8L71 17h1.5v7.6h-1v-6.3L69 24.6h-.7l-2.6-6.3v6.3h-1V17zM85.3 17h4.9v1h-3.9v2.3H90v1h-3.6v2.4h4.1v1h-5.1V17h-.1zM102.5 17h2.7c.5 0 1 .1 1.4.2.4.1.8.3 1.1.5.3.2.5.4.7.7.2.3.4.5.5.8.1.3.2.6.2.8.1.3.1.5.1.8 0 .5-.1 1-.3 1.4-.2.4-.4.9-.8 1.2-.4.4-.8.6-1.3.9-.5.3-1.1.3-1.8.3h-2.5V17zm1.1 6.6h1.3c.4 0 .9-.1 1.2-.2.4-.1.7-.3 1-.5.3-.2.5-.5.7-.9.2-.4.3-.8.3-1.2 0-.2 0-.5-.1-.9s-.2-.6-.4-.9c-.2-.3-.5-.5-.9-.8-.4-.3-.9-.3-1.5-.3h-1.6v5.7zM34.2 11.2h-.7c0 .2-.1.3-.1.4h.8v-.4zM19.8 11.3c0-2.5 0-4.7.1-6.5.1-1.9.1-3.1.2-3.7.4-.1 1-.1 1.8-.2s1.7-.1 2.5-.1c2.5 0 4.6.1 6.3.3 1.7.2 2.9.5 3.6.8 2.7 1.3 5.5 3.9 8.6 7.7l.6-.3-4-9.3H8.4v.6c1 .2 1.8.3 2.5.5.6.2 1.2.6 1.8 1.2.2.2.4.6.5 1.1.1.5.2 1.1.3 1.7.1.6.1 1.3.1 2v4.6h6.2v-.4zM33.5 28.9h.7v-.2h-.7v.2zM13.5 29.7v2.1c0 .6 0 1.2-.1 1.8 0 .6-.1 1.2-.2 1.8-.1.6-.2 1.1-.3 1.5-.1.4-.3.8-.5 1-.5.6-1.2 1.1-2 1.4-.8.3-1.7.6-2.6.7v.6h34.5l2.8-10.8-.6-.2c-.9 1.6-1.9 3-2.7 4.1-.9 1.1-1.8 2.1-2.7 2.9-.9.8-1.9 1.4-2.9 1.8-1 .4-2.1.7-3.3.9-1.1.2-2.1.2-3.1.3-1 0-1.8.1-2.5.1-1.5 0-2.9-.1-4.2-.3-1.3-.2-2.1-.6-2.4-1.1-.3-.5-.6-1.3-.6-2.4 0-1.1-.2-2.2-.2-3.4v-1.4-1.7-.7h-6.2c-.1.4-.1.7-.2 1zM73.8 30.7l-.9-2h-6.8c.4.9.8 1.7 1.1 2.6 1.2 2.7 2.4 5.5 3.6 8.3h.3c.1-.2.3-.7.6-1.4s.6-1.5 1-2.3c.3-.8.7-1.7 1-2.5.3-.8.6-1.4.8-1.8.5-1 .9-2 1.3-3h-1.2c-.2.8-.5 1.4-.8 2.1zM53.4 33.4c-.2 1.3-.6 2.5-1.1 3.4-.5.9-1.1 1.6-2 2.1-.8.5-1.9.9-3.2 1.2v.6h14.7v-.6c-1.6-.2-2.9-.6-3.8-1.1-.9-.5-1.6-1.2-2.1-2.1-.5-.9-.7-2-.8-3.3-.1-1.3-.2-2.8-.2-4.6v-.3h-1.2c0 1.9-.1 3.4-.3 4.7zM87.4 32.8c0 .8-.1 1.5-.2 2.2-.1.7-.3 1.3-.5 1.8-.4.8-1.1 1.5-2.2 2.1-1.1.6-2.4.9-4.1 1v.6h19.4v-.6c-.9 0-1.7-.2-2.4-.4s-1.2-.5-1.7-.8c-.5-.3-.8-.6-1-.9-.2-.3-.4-.5-.4-.5-.2-.4-.4-1-.5-1.7-.1-.7-.1-1.5-.1-2.2v-4.7h-6.1c-.1 1.4-.1 2.7-.2 4.1zM84.1 10.4c1-2.3 2.2-4.9 3.4-7.7v8.8h6.1v-.9c0-1.3.1-2.7.2-4 .1-1.4.2-2.4.5-3 .3-.8.9-1.5 1.7-2.1.8-.6 2-.9 3.5-1V0h-12c-.1.3-.6 1.4-1.4 3.3-.8 1.9-1.8 4.3-3.1 7.1-.2.4-.3.8-.5 1.2h1.2c.1-.4.3-.8.4-1.2zM55 10.2V3.6c.2.4.5 1.2 1 2.4s1.2 2.6 1.9 4.3l.6 1.2h6.9L60.4 0h-12v.6c.5.1 1 .2 1.6.4.6.2 1.2.4 1.8.8.6.4 1.1.9 1.5 1.6.4.7.6 1.5.7 2.6V11.6h1v-1.4z"/></g><defs><clipPath id="clip0"><path fill="#fff" d="M0 0h109.2v40.6H0z"/></clipPath></defs></svg>
